svgs/duotone/champagne-glass.svg

<svg xmlns="http://www.w3.org/2000/svg" viewBox="0 0 256 512"><!--! Font Awesome Pro 6.3.0 by @fontawesome - https://fontawesome.com License - https://fontawesome.com/license (Commercial License) Copyright 2023 Fonticons, Inc. --><defs><style>.fa-secondary{opacity:.4}</style></defs><path class="fa-primary" d="M191.5 220.5c3.825 29.45-16.42 57.48-47.11 65.18c-10.78 2.707-22.05 2.707-32.83 0C80.9 277.1 60.65 249.9 64.34 221.5L77.99 128h100L191.5 220.5z"/><path class="fa-secondary" d="M168.7 64l22.86 156.5c3.825 29.45-16.42 57.48-47.11 65.18c-10.78 2.705-22.05 2.705-32.83 0C80.9 277.1 60.65 249.9 64.34 221.5L87.34 64H168.7zM196.2 0H59.77c-15.1 0-29.49 11.75-31.74 27.38L1.033 212.3c-8.248 63.5 34.23 120.3 94.97 135.5V464H56.01c-22.12 0-39.99 17.88-39.99 40c0 4.375 3.624 8 7.999 8h207.1c4.374 0 7.998-3.625 7.998-8c0-22.12-17.87-40-39.99-40h-39.99v-116.3c60.74-15.25 103.2-71.96 94.98-135.5l-26.99-184.9C225.7 11.75 212.2 0 196.2 0z"/></svg>

<svg xmlns="http://www.w3.org/2000/svg" viewBox="0 0 256 512"><!-- Font Awesome Pro 6.0.0-alpha2 by @fontawesome - https://fontawesome.com License - https://fontawesome.com/license (Commercial License) --><defs><style>.fa-secondary{opacity:.4}</style></defs><path d="M168.664 64L191.521 220.496C195.347 249.949 175.097 277.973 144.415 285.676L144.415 285.676C133.639 288.381 122.361 288.381 111.585 285.676L111.585 285.676C80.903 277.973 60.653 249.949 64.34 221.5L87.338 64H168.664M196.237 0H59.763C43.766 0 30.268 11.75 28.019 27.375L1.024 212.25C-7.225 275.75 35.267 332.5 96.006 347.75V464H56.014C33.893 464 16.021 481.875 16.021 504C16.021 508.375 19.645 512 24.02 512H231.98C236.355 512 239.979 508.375 239.979 504C239.979 481.875 222.107 464 199.986 464H159.994V347.75C220.733 332.5 263.225 275.75 254.976 212.25L227.981 27.375C225.732 11.75 212.234 0 196.237 0L196.237 0Z" class="fa-secondary"/><path d="M191.613 220.496C195.439 249.949 175.189 277.973 144.507 285.676C133.732 288.383 122.453 288.383 111.677 285.676C80.996 277.973 60.745 249.949 64.432 221.5L78.084 128H178.104L191.613 220.496Z" class="fa-primary"/></svg>
